X:1
T:The Clothier
M:4/4
L:1/8
K:D
D-F| AA A2 G2 BB| A2 F2 E2 FE| DE FG A2 GG| EE EE D2 A2| d2 d2 B2 d2|\
 =c2 A2 B2 BA| GA B=c d2 AB| =cc AB c3 c| d2 d2 B2 d2| =c2 A2 B2 BA|\
 GA B=c d2 AB| =cc AB c3 B| A2 A2 G2 B2| A2 F2 E2 FE| DE FG A2 GG|\
 EE EE D2||
